/* XPM */
static char *f6e4fa2ded4348bd958d89e0099bff03FmdZWJ5UnTJ3j9F4[] = {
/* columns rows colors chars-per-pixel */
"64 64 250 2 ",
"   c #3B0C00",
".  c #370B00",
"X  c #3D1400",
"o  c #3E1A00",
"O  c #331200",
"+  c #2E0600",
"@  c #3A2000",
"#  c #431500",
"$  c #4A1500",
"%  c #441B00",
"&  c #4B1D00",
"*  c #521D00",
"=  c #551D0C",
"-  c #410C00",
";  c #452201",
":  c #4C2301",
">  c #4D2A02",
",  c #4A2607",
"<  c #532400",
"1  c #5A2601",
"2  c #542A02",
"3  c #5B2C02",
"4  c #552C09",
"5  c #5B2C0B",
"6  c #57260E",
"7  c #553103",
"8  c #5C3104",
"9  c #55330C",
"0  c #5C330B",
"q  c #5B3A0A",
"w  c #5C2D11",
"e  c #582D17",
"r  c #5C3413",
"t  c #5C3916",
"y  c #622D02",
"u  c #682E0A",
"i  c #633304",
"p  c #693504",
"a  c #6C3A04",
"s  c #63340B",
"d  c #69350B",
"f  c #633A0D",
"g  c #6B3C0C",
"h  c #643906",
"j  c #723C0C",
"k  c #633513",
"l  c #6B3612",
"z  c #643B13",
"x  c #6B3C13",
"c  c #633B1A",
"v  c #6B3C1B",
"b  c #683119",
"n  c #723D13",
"m  c #713E1A",
"M  c #793E14",
"N  c #612F12",
"B  c #663921",
"V  c #723B24",
"C  c #67410C",
"Z  c #77460E",
"A  c #6C4214",
"S  c #67431A",
"D  c #6C431A",
"F  c #6A4518",
"G  c #734313",
"H  c #794415",
"J  c #7C4B15",
"K  c #73441B",
"L  c #79451A",
"P  c #754A1C",
"I  c #7B4B1C",
"U  c #754A15",
"Y  c #7D521D",
"T  c #7D5514",
"R  c #6D4A22",
"E  c #694626",
"W  c #744523",
"Q  c #754B23",
"!  c #7B4E23",
"~  c #7B4E2A",
"^  c #764928",
"/  c #7C5323",
"(  c #7C532B",
")  c #755329",
"_  c #7D5635",
"`  c #834C15",
"'  c #824D1C",
"]  c #884F17",
"[  c #84521C",
"{  c #8B541D",
"}  c #8C5A1E",
"|  c #85571A",
" . c #935A1C",
".. c #93601D",
"X. c #824D23",
"o. c #834B2B",
"O. c #835424",
"+. c #8A5524",
"@. c #855A25",
"#. c #8B5A24",
"$. c #84552B",
"%. c #8A562A",
"&. c #855A2D",
"*. c #8C5B2B",
"=. c #925C24",
"-. c #935D2B",
";. c #975C29",
":. c #824D32",
">. c #855532",
",. c #865C33",
"<. c #8B5C33",
"1. c #8C5D39",
"2. c #895734",
"3. c #925E32",
"4. c #935F3C",
"5. c #8D612A",
"6. c #8E6225",
"7. c #966326",
"8. c #94632C",
"9. c #9B652C",
"0. c #9C6A2E",
"q. c #976526",
"w. c #8E6334",
"e. c #8D6339",
"r. c #956433",
"t. c #9A6533",
"y. c #946A34",
"u. c #9C6A33",
"i. c #93653C",
"p. c #99673A",
"a. c #956A3B",
"s. c #9C6C3B",
"d. c #9C713C",
"f. c #9D7136",
"g. c #9B7129",
"h. c #A36B2D",
"j. c #A86A2F",
"k. c #A4732C",
"l. c #A6792F",
"z. c #A16632",
"x. c #A36C34",
"c. c #AA6E34",
"v. c #A26E3B",
"b. c #AB6F3A",
"n. c #A0673B",
"m. c #A47134",
"M. c #AB7335",
"N. c #AB7A36",
"B. c #A5723B",
"V. c #AB743C",
"C. c #AC7A3D",
"Z. c #A57938",
"A. c #B2763C",
"S. c #B37B3D",
"D. c #B57738",
"F. c #B06F3C",
"G. c #8D6341",
"H. c #946A42",
"J. c #9C6D42",
"K. c #996845",
"L. c #9D7143",
"P. c #9D744B",
"I. c #9F794A",
"U. c #9F7755",
"Y. c #A46D43",
"T. c #A66F4A",
"R. c #A47443",
"E. c #AB7543",
"W. c #A47A45",
"Q. c #AD7B43",
"!. c #A4744A",
"~. c #AB754B",
"^. c #A57A4B",
"/. c #AC7B4B",
"(. c #B17641",
"). c #B37B43",
"_. c #BA7D43",
"`. c #B27D4C",
"'. c #BD7E49",
"]. c #B3724D",
"[. c #A37952",
"{. c #AD7C52",
"}. c #A97755",
"|. c #B27D52",
" X c #B4813E",
".X c #AF8238",
"XX c #AE814B",
"oX c #AF8044",
"OX c #B48245",
"+X c #BA8345",
"@X c #B4824C",
"#X c #BA834B",
"$X c #BC8A4C",
"%X c #B8884B",
"&X c #AD8252",
"*X c #AE845A",
"=X c #B38354",
"-X c #B98553",
";X c #BC8A54",
":X c #B4855A",
">X c #B58B5B",
",X c #BB8B5B",
"<X c #B68956",
"1X c #BD915D",
"2X c #BA915B",
"3X c #BC8E63",
"4X c #B98662",
"5X c #BD9264",
"6X c #B99567",
"7X c #C2854B",
"8X c #C38B4C",
"9X c #C08746",
"0X c #C38D54",
"qX c #C38D5C",
"wX c #C98C55",
"eX c #C39155",
"rX c #CC9353",
"tX c #C3935C",
"yX c #CC935B",
"uX c #CC9A5D",
"iX c #C7985D",
"pX c #D49B5C",
"aX c #C9944F",
"sX c #D6A15D",
"dX c #C38E60",
"fX c #C49463",
"gX c #CB9564",
"hX c #CD9A63",
"jX c #C49569",
"kX c #CC9B6B",
"lX c #C89868",
"zX c #D29C63",
"xX c #D29E6B",
"cX c #D19466",
"vX c #CC9E73",
"bX c #D49D72",
"nX c #CCA16C",
"mX c #D5A166",
"MX c #D4A36C",
"NX c #DCA76B",
"BX c #CDA172",
"VX c #CFA779",
"CX c #D3A474",
"ZX c #DAA674",
"AX c #D7A979",
"SX c #DAB07E",
"DX c #E1A977",
"FX c #E3B172",
"GX c #E1A46B",
"HX c #D4A981",
/* pixels */
"_ r 7 7 q f 4 c ( Q & -.hXyXwX8X9XrXqXy 0 0 f fXhXuX0X;XyX#X#XR.5 : c R ; 3 p 3 /.fXgXt.3 & : ~ R ; U tXeX+XrX9XS.OXC.i., e 1 u ",
"v 2 e.kX>X>XH.& c s w.xXyXwX7XD.S.8XyX~.< % i.vXhXeX0X).C.x.V./.!.c 4 4 Q jXhXiXxXlXxXgXgXO.z c R 7 >XlX%XOX9X+XN.u.u.^.E X $ ].",
"$ X.DXuXQ.B.R.&.# < lXgXyX7X_.j.M.m.V././ % < ,XtX).).).V.x.9.B.s.z # % jXnXzXzXzX#X7XwXyXZXJ.< ( z 5X^.E.).V.S.V.9.t.L.E % X.cX",
"M H 0XM.m.C.-.*.< J.lX-X).yX_.j.N.M.V./.*.2 < {.Q.OXB.B.} =.| #.O.f & *.uXuX8XS.+XV.D._._.;Xp.< 8 : [.!.v.).z.C.B.R.t.$.E X -XZX",
"1 j 0XM.M.9.v.I 1 3XlX/.E.A._.A.m.V.x.B.e.8 & s R.s.8.[ [ [ [ O.O.s & -XNXaX9XN.c.A.7XD.c.C.p.s : 4 [.P.Y.n.t.-.%.3.r.>.t X ).GX",
"& g @X0.q.+.O.K < [.=X`.E.(.A.A.S.C.7.u./ 8 v 5 s ! ! O.O.$.O.O.A # *.xXpX+XM.S.V.V.D.M.M.V.O.f 0 c k P.$.$.X.' X.%.%.Q r _ hXrX",
"W 0 ^.*.Y *.K 3 # 3XAXqXE.(.A.A.V.).x.[ Y 0 0 w #   < k z v v k : 3 /.zXyXV.V.V.C.C.M.A.V.t.P 0 c _ , 4 ^ ! X.O.&.2.X.D o Q zXpX",
") 4 : A g h i H.8 :X>XR.E.E.(.(.Q.u.M.| U < W 4.1.1.1.i.^ % # c # ! DX).'.'.V.C.Q.C.V.0.u.*.P o , r r   5 s x K z v 3 % 0 X x.rX",
") ) 9 o & !./.CXK G ,XR.R.`.@XQ.u.[ } #.2 / kXZXZXxXqX;X`.s.z 2 s :XyXV.A.).z.9.V.V.C.m.=.O.K # ) U.G.}.K # < < v v s < x 3 V._.",
"R ) 0 : ^.CXdX=X:X3 G ^.r.s.r.+.` ` [ I % L.xX#X0XC.A.c.V.@XL.< f CX;Xx.A.M.V.u.=.B.V.C.8.O.!   P.AXlXfX>XR.! 2 k _ 2 < n * 9.V.",
"_ R & ^.CXtX`.-X,X/.< 3 g ' +.' +.%.I g % e.gXb.@X_.c.A.V.E.s.: z ,XE.E.A.V.C.u.u.Q.x.8.*./ z < /.xXhX%X).x.B.r.# c 3 w.~.p Z ).",
"_ 0 ,.AX|.-X-XR.R.^.K 3 y d p 1 y i * & % ,.`.E.V.C.).M.V.E.s.3 : w.R.C.9.x.+.[ ` =.u.%./ Q # $.xXhXwX+X0Xm.).[ < & D !.E.8.1 ` ",
"4 # f a.R.E.v.-.R.*.*.L < < r.r.t.p.p.&.# $.`.v.8.).c.V.).s.$.> X z /.Q.x.v.%.[ [ [ [ I ( ~ X &.<XC.x.h.S.x.=.[ K % H.!.~.E.-.* ",
"% % X I R.R.v.-.p.I ! d *.=X=X;X,XkX,X/.8 ( E.;.x.A.=.x.x.-.I 7 ; 9 J.^.B.*.O.I [ [ / $.( 0 % P <X/.v.9.{ [ J U : # K.!.R.E.E.j ",
"! J.x < x +.s.v.%.I ! 3 3.,X,Xu.8.B.s.s.f / `.V.x.x.x. .{ +.P < S ; f @.@.! $.@.O.O./ R 4 : 0 % s i.!.$.O./ I K % & 1.!.R.v.E.t.",
"jXCXkXp.3 G O.O.! I / i O.=XR.t.+.I O.@.q C d.u.O.+.+.+.' G 8 2 ) S : 0 z K z z f A 0 X X D ( P & 3 z z K z 2 & x 2 >.{.R.u.E.Y.",
"jXCX=XZXv.& < d G ! s   d s.+.+.O.O.>.~ 4 o 7 8 r c k c 0 X o 0 _ S : 0 z < 0 A % % 2 a.i.jXnX<X/ A < 2   # # & 3 2 e./.s.u.v.v.",
"3X{.=X<XgX@X' & 3 2 < I p 3 3 1 1 3 5 < % c q S r % & X 0 I.I.8 2 2 + c ( _ D 3 8 *.>XBXAXXXQ.d.XXr.3 8 G R.H.{.G < z {.s.u.t.t.",
"3XJ./.B.-XxXR.I 3 & A 3X3XE.y y < < 3 : < > Q / : &.5X=X<XBXMX<XXX{.v & W Q & 5.;XmXNX$Xm.$XN.C.V.#.& a fXSX;X,XfXG & i.v.u.-.%.",
"fX/.R.R.R.=X~.s.P 0 5XAXfXxXgXqXqXqXjX,X^.z ; 0 G xXgXxX@X0XuXhX2X/.}.V 1 1 O.MXhXiX$XS.m.S.+XB.#.[ < 8.mXOXN.$X@XI # s v.t.%.X.",
"/.v.R.r.B.R.E.!.! z 5X>XlX-XV.x.V.@XQ.W.^.J.3   X.AX-X@X).C.$XOX0XB.|.K.1 * 8.zXS.M.7X9.V.V.t.+.' H j xXiXOXl.N.B.s.d 3 < p i y ",
"s.%.E.r.R.R.R.L.! 2 w.=X^.-XE.=.x.B.B.E.y.<.0 2 I gXE.E.#XOXx.0.x.B.3.2.* n hX@XS.S.V.;.z.#.X.o.o.1 n lX@X%X.Xg.8.s.x < h u.1 & ",
"t.B.J [ r.r.r.w.( : 2 e.=XQ.C.C.x.V.m.} +.! s K K Q.C.Q.C.m.x.} 8.!.i.~ % k ,XB.} k.C.C.v.%.X.o.V = b 4XR.oXC.k.#.w.s 3 fXAX=X1 ",
"O.*.Y O./ ! ! ! ! 0 : z O.p.s.r.=.[ +.J g 3 % k 3 #.u.Q.Q.0.[ Y Y ( 1.5 & . A L.8.6.XXr.X.$.W k = B w }.!.u.m.Q.5.I < x MX@X&Xs.",
",.$.O.$.( ,.A ! 2 % 4 . X l v K d f A f % 2 D D 3 < p p x K P / &.A z % % D I h h A E E t ; X . < m d !.3.v.B.r.I O.3 >X,X^.R.L.",
"W Q P D E k 2 % D P.,.1.1.~ * % < 0 0 % h >XBXAX:X$.%.%.l % 3 A h < f r.a.BXCXs./ D O , @ , &.*.O.< < v.Y.Y.r.%.O.I < >X=X^.^.^.",
"% 5 5 & e e # K BXAXkX;XkXCXR.P : Q z 3 ;XmX@X-XzX#XwXqX~.K & # 8 6.@XiX@X;X$XOXkX=XS 9 ; e.BXkX,Xs.* O.r.O.I I J & O./.!.L.R.!.",
"  ^ ^.:Xv & m kXhXiXC.C.).eX%X,X! % < :XyX).c.A._.M.7.z.T.l * s.0XuXOX+XC.N.M.m.C.@XJ.D % 5XfXE.8.=XO.3 i < 2 s : % s.{.e.y.y.y.",
"j gXFXzX`.j hXzXrXeXS.N.S.S.S.Q.w.% z 3XC.M.=.c.c.S.M.#.n * T.xXiXV.m.+XM.{ j.A.#X`.i.z & 3XtX).R.`.$.3 2 & I ,Xr.& r.^.d.@.Y / ",
"yXNXsXsX).j yX8X8XS.+XM.S.S.D.C.^.0 : <.E.).).9.z.c.0.#.s ^ :X=X`.x.x.C.C.x.V.h.x.t.&.k : 4XqX`.qXqXs.s 8 =X,XtX/.G I s.O./ / @.",
"qXgXrX7X~.M yX).).7Xc.).7X_.A.v.!.! % 0 ^.a.L.a.Y.%.I / 3 Q }.!.v.n.v.R.~.R.-.+.] L v 6 & }.|.`.`.=X=X/ $.:Xs.p.=Xd % h 3 h 0 3 ",
"cXcXwX+XE.M yXc.A.b.).(.wX'.F.z.~.J.4 > z 8 3 3 1 u h 8 % : 1.i.! %.3.3.-.H * y y u < $ $ K.Y.E.E.!.!.f ! a.R.t.I 3 s I A K z : ",
"qX#X9XwX-.j wXc.A.V.V.A.(.(.V.b.E.<.4 0 o : u.8X'.`././.&.X : < 3 i p i p y y t.-X-XE.s.p 8.C.t./.{.L.D f / O.I g # g G / &.~ 4 ",
"E.B.M.V.8.i C.A.c.V.A.V.x.x.A.E.t.O.2 % S R.FXrXyXwX@X^.{.( % x jXlXfX=X,XfX-XgXfX/.v.Q.Z J Q.u.s././ A % < & j p j a Z 8 : w % ",
"R.Q.A.V.Y p B.x.7.M.S.M.x.9.).v.-.K < e.VXfX0XOXV.C.E.^.&XD # >XvXfX=XE.E.-XR.R.=XJ.w.s.3 < r.R.p.O.Q 7 % : I fXgXZX;XuX<X&.0 % ",
"s.E.C.u./ < %.B.{ x.S.x.V.;.C.;.' s H.VX,XB.u.C.).Q.v.p.!.K : *X5X>X`.E.r.s.*.s.!.!.i.,.0 : 3 O.*.! 0 > : ! CXgXgX@XV.$X%X5XQ , ",
"Q $.t.+.P % f -XB.V.x.9.9.V.=.' d < vXfX*.u.B.C.u.8.v.*.$.,.A i.L.<Xs.+.G ' L @.! ! A s & 3 $.< i < : S o I.kXE.`.). X X0.W.0 > ",
"0 D p A : o 2 8.V.h.9.x.h.{ J *.3 i.=XQ.C.q.8.f.C.#.+.I I A < % 3 O.X.' 1 * a G i a p h s 5XlX-XgX1XP 0 O I.,XC.C.N.N.N.Z.y.Q 4 ",
"% 2 K P ) 9 % G { ] ] =.] ] { I 0 1.{.x.x.B.y.Y +.[ [ j < 8 P A A d * G $ 8.xXhXhXmXxXhXhXhXiXhXhX,XBXP.o / R.E.m.k.k.k.g.| / > ",
"o H.lX>X>XP.2 < H [ #.+.J Z { L 2 G.~.t.u.*./ / [ r.G < I &XSXfXkX-Xl $ -.xXzXhXhXhX0X@X#XzX0X8X).Q.1X>X7 ; a.XXq.q.q.q.T T C ; ",
"I.>X@XC.f.d.d.< < 3 5 5 0 # 8 2 % 5 i.$.W $.D Q ! n 3 R.BXBX1XR.@X>Xo.$ gXuXuXuX;XOXV.h.OXV.V.OX+XC.Q.<X/ : D w.r.*.Y U Y @.7 > ",
"2XXXOXm.m.m.y.8 < L.K.% % 4 P.3X/ & < 5 m 3 8 % 3   r.AX<X>X<XXXQ.~.o.* -X#X+X+X#X).V.V.V.m.M.S.).C.B.Q.G g < 8 ! / ( $.( 0 : P ",
"W.f.0...m.0.Y > u.>X{.W   ~.CXgXtXtXfX@X;X;X/.G s & a.fXR.d.B.Q.s.3.:.5 /.C.C.C.Q.Q.C.C.V.x.x.V.).Q.B.r.i A A X s c D Q 0 % 3 W ",
"w.^.m.9.J | U h u.;XE.d l kX;XC.0XuX0XQ.V.C.m.;XlXK # J.R.r.5.u.8.! :.b /.Q.Q.C.C.Q.Q.Q.B.0.0.B.E.Q.v.#.i i < O.I ! ! ! ! ! O.& ",
"r i.$.' L X.: ( @X-.s.u ~.cX-X).S.k.k. X0.h.m.Q.!.i.3 L t.8.[ [ [ $.W 5 R.;XOXx.B.C.C.0.u.u.0.u.R.W.*.[ y $ { mXNXNXmX0XNXzX#Xm.",
"; : < y u 1 & : *.t.<.5 K.4X/.B.N.M.N.N.h...7.V.Y.{.s # 3 3 3 y p x $ < t.Q.x.#.C.m.B.Q.8.x.B.R.^.O.P g < [ mXpX$X9X XM.S.h.M.+X",
"% 3 $.`.-X{.H.% 0 K $.N :.}././.C.C.C.V.A.V.B.V.s.X.s < G 0X;X0X-Xr.* * %.C.C.u.B.9.8.m.B.u.8.@.$.&./ & { NXyX_.c.A.A.x.V._.).x.",
"P BXkX@Xv./.jX:XD % w r % >.K.~.v.).).x.u.).V.+.%.i . @XmXeXzXOXE.|.4Xv y #.v.B.u.u.8.[ [ | Y Y / ,.f & ).zXwXA.M.).).V.V.V.V.A.",
"fXhX).@X).E.Q.=XR.Q : , % # % ! %.B.t.E.-.r.+.I O.i O.1XyXS.k.M.B.Y.}.m & H +.[ [ *.J J H #.[ / / S % ! zXV.A.A.V.C.9.7.m.m.).9.",
"yX0X).wXC.Q.C.C.^.J.& % W }.1.# i %.%.3.t.X.! $.G < s.hX$XN.k.M.t.!.J.u < 1 y g [ %.X.[ *.H I A < : r ~ -XC.A.A.C.B.u.C.B.u.0.{ ",
"yXQ.).).v.C.C.B./.s.: W bXbX=XL * y X.X.L 1 l s &   *.=X).x.x.C.t.v.O.< 3 < 3 i 3 1 3 y < < d 3 & % & < 3.C.S.M.u.B.E.m.[ | +.[ ",
"V.).B.C.Q.V.V.E.B.I A lXhX).Y./.H $ d M 1 d |.{.& < X.`.B.u.n.E.Y.-.p 3 =XfXtX;Xa < 3 1 1 /.jXfXfXI s # K E.x.0.#.Y @.O.O.Y O.G ",
"V.#XC.x.x.x.=.u.*.g P kX).+XA.).H a qXhXhXiXtX-X=X#.1 L Y.X.<.%.I < 3 ;XCXiX2XiXQ.B.a % u.MXhX0XOXhX/.m k 5 G I $.<.$.O.&.I d < ",
"x.).x.=.x.V.=.J $.K z &XV.M.V.).i V.mXiXtX;X`.E.0X|.d - x >.2.s < [ Q.hX;XE.m.C.B.C.J Z iXhX@X#XM.$X%X|.^   : 0 0 0 3 0 s 2 0 3 ",
"x.Q.B.B.C.} ` I Q 4 q W.m.V.V.-.1 |.CX,X{.~.R.R.~.~.3.1 & w 5 4 R.hXiX0X$XQ.C.Q.x.Q.J r.ZXfX=X`.z.A._.Q.i.r z r X ( K.: : % 0 : ",
"i r.B.t.+.[ #.I r , o Q u.x.v.%.s <.=XR.R.R.!.T.|.~.T.1 >.& # K.<XNX).0.@XV.x.B.v.E.g 3.3X{.,XY.V.b.S.B.=Xv S ; Q vXHX*X*XP.P.x ",
", , k Q x d y # : B > z p.[ [ O.5 i.^.8.y.t.p.K.T.4.m 5 ^ c < &.XXQ.Q.C.C.V.9.+.8.' 3 r.;Xv.^.v.v.=.x.C.E.i : ~ vXgXfX-X`.`.E.R.",
"_ c X X K $.o.2.< % > % x %.&.A & K R.6.C.d.a.<.$.K & # # < 2 <.L.s.u.t.t.[ J [ -.g & I /.R.R.p.s.B.9.B.*.3 4 vXgX).).#Xb.b.V.C.",
"< s s.r.xXbXqXdXs.r.d.P < k k 2 # # G Q.y.5.O.I 3 < & &.{.z # K !.a.O.P K O./ A 8 < 3 I ^.8.r.R.t.r.w.&.D % 4 vX,X#X).z.(.(.V.V.",
"1 :XCXzX#XC.b.z.#XtX;X&Xf o o S [.L.8 8 2 2 2 2 A L.&XvX>X^.&.8 3 8 0 0 8 2 3 0 & 3 p < *.p.#.r.O.I Q Q ; o 0 jX`.#XwX#Xz.x.b.E.",
"=XgXB.C.7XA.b.A.V.B.R.R.L.> q 6X3X&Xa.# < 3 3 =X<XfXfX&X!.!.&Xx # 3 &.5X*X>X3X5X&Xg < : < G G I K m < > 9 o 2 <XE.C.V.E.V.9.9.b.",
"~.-XB.m.S.j.;.j.x.Q.B.*.( > q *X^.!.a.i.2 : ^.1XXXu.B.tXy.a.s.h I kX&Xr.=X:X,XfX>XfX=XA p [ H I x x x ! H.0 2 >XC.V.z.b.V.b.9.+.",
"$.R.Q.9.h.M.c.=.m.7.+.+.Y > 7 I.s.d.$.P.~ # W.C.f.u.q.#.#.#.[ i ;X-XQ.t.t.u.v.R.s.s.t.g E.fXtX,X`.-X`.v.$.x : $.E.b.x.9.;.=.] ` ",
"% O.B.J } N.7.7.q.| ` [ C ; ; Q @.@.&.K 5 : 5.| T | } | | T a 3 Z ).x.=.` { { =.[ J [ a H p.E.s.} } =.{ +.3 # : X.=.-.` ] { { ` "
};
