/* XPM */
static char *_ffe5322039f47a4f21d3c565dc11ba4eGGNhhlFX0AwqbMd[] = {
/* columns rows colors chars-per-pixel */
"64 64 256 2 ",
"   c #261F06",
".  c #331D0F",
"X  c #1B2702",
"o  c #1A3401",
"O  c #232B01",
"+  c #2B2C04",
"@  c #292707",
"#  c #372A09",
"$  c #293706",
"%  c #363809",
"&  c #292916",
"*  c #3C2B13",
"=  c #382818",
"-  c #293615",
";  c #3C3313",
":  c #363916",
">  c #392B25",
",  c #3A3926",
"<  c #3D3533",
"1  c #1F1F03",
"2  c #46290C",
"3  c #45380B",
"4  c #472A18",
"5  c #592B19",
"6  c #433414",
"7  c #433A1B",
"8  c #4C3C1B",
"9  c #493617",
"0  c #563719",
"q  c #542F0D",
"w  c #662A1B",
"e  c #66371A",
"r  c #732E1D",
"t  c #482B24",
"y  c #483826",
"u  c #543323",
"i  c #543B23",
"p  c #5B3B24",
"a  c #5C3C2A",
"s  c #593529",
"d  c #473A35",
"f  c #5A3833",
"g  c #592B21",
"h  c #633524",
"j  c #6C3323",
"k  c #6C3C2C",
"l  c #663928",
"z  c #7B3D2D",
"x  c #753829",
"c  c #653A35",
"v  c #7B3E33",
"b  c #753C35",
"n  c #6D2E22",
"m  c #471D11",
"M  c #2A4707",
"N  c #374808",
"B  c #37560B",
"V  c #384915",
"C  c #3A5516",
"Z  c #2F5105",
"A  c #39501D",
"S  c #46480A",
"D  c #44570C",
"F  c #484719",
"G  c #564719",
"H  c #475818",
"J  c #57571C",
"K  c #54560B",
"L  c #63461B",
"P  c #62521F",
"I  c #486519",
"U  c #536619",
"Y  c #567519",
"T  c #4D7115",
"R  c #484727",
"E  c #5C432C",
"W  c #5D4B2A",
"Q  c #574625",
"!  c #475626",
"~  c #585727",
"^  c #4A4638",
"/  c #544B34",
"(  c #5A4636",
")  c #585637",
"_  c #4B5536",
"`  c #664729",
"'  c #72432C",
"]  c #7C432C",
"[  c #764A2B",
"{  c #66562A",
"}  c #634332",
"|  c #6C4433",
" . c #694B37",
".. c #744434",
"X. c #7B4433",
"o. c #744C33",
"O. c #7B4C34",
"+. c #744B3B",
"@. c #7B4B3C",
"#. c #78443B",
"$. c #6A5537",
"%. c #73523C",
"&. c #7D533C",
"*. c #765837",
"=. c #75582B",
"-. c #4B6525",
";. c #586728",
":. c #587527",
">. c #5C7735",
",. c #576A35",
"<. c #666629",
"1. c #67752A",
"2. c #686737",
"3. c #78663A",
"4. c #667834",
"5. c #73783A",
"6. c #74672C",
"7. c #6D3E45",
"8. c #584B45",
"9. c #5B544B",
"0. c #585545",
"q. c #58524C",
"w. c #794C43",
"e. c #675949",
"r. c #7C5342",
"t. c #785846",
"y. c #665D56",
"u. c #6C504C",
"i. c #5E614D",
"p. c #63624C",
"a. c #69684A",
"s. c #786347",
"d. c #6B6355",
"f. c #696858",
"g. c #736C5B",
"h. c #766857",
"j. c #6E725C",
"k. c #78735C",
"l. c #717544",
"z. c #766C63",
"x. c #7B7562",
"c. c #7C7B64",
"v. c #7A7868",
"b. c #6F7566",
"n. c #853D2D",
"m. c #873D32",
"M. c #963C33",
"N. c #86422C",
"B. c #844434",
"V. c #8C4434",
"C. c #824A35",
"Z. c #84453B",
"A. c #8C4439",
"S. c #834C3C",
"D. c #8B4B3B",
"F. c #8A4D35",
"G. c #944C3C",
"H. c #954838",
"J. c #84533D",
"K. c #8B533E",
"L. c #84593A",
"P. c #93553C",
"I. c #A24D3D",
"U. c #87653D",
"Y. c #906137",
"T. c #894D45",
"R. c #954D43",
"E. c #9A4D44",
"W. c #845443",
"Q. c #8C5444",
"!. c #835C44",
"~. c #83534B",
"^. c #8B5C4C",
"/. c #8A5848",
"(. c #945443",
"). c #9C5344",
"_. c #925B45",
"`. c #94544B",
"'. c #9D564B",
"]. c #935C4B",
"[. c #9B5B4B",
"{. c #9B5D45",
"}. c #895953",
"|. c #985C53",
" X c #A35B4B",
".X c #A55847",
"XX c #A65C54",
"oX c #AF5B4F",
"OX c #896448",
"+X c #94634D",
"@X c #9B624D",
"#X c #996648",
"$X c #886856",
"%X c #956453",
"&X c #9D6354",
"*X c #996858",
"=X c #987357",
"-X c #877450",
";X c #A8634D",
":X c #A46453",
">X c #AB6353",
",X c #AB6A5B",
"<X c #A66958",
"1X c #B36B5A",
"2X c #B56657",
"3X c #A8735C",
"4X c #B6735C",
"5X c #827B66",
"6X c #837C6B",
"7X c #867765",
"8X c #997867",
"9X c #95736A",
"0X c #A66863",
"qX c #B76E62",
"wX c #AA7465",
"eX c #B87766",
"rX c #AB7D70",
"tX c #C37366",
"yX c #C67166",
"uX c #C4685B",
"iX c #5B8328",
"pX c #6A8637",
"aX c #738937",
"sX c #769638",
"dX c #6D8E2F",
"fX c #60841B",
"gX c #768844",
"hX c #7A9647",
"jX c #6B8844",
"kX c #7BA647",
"lX c #7C826B",
"zX c #7F8572",
"xX c #819E38",
"cX c #898F4D",
"vX c #84836D",
"bX c #8A836D",
"nX c #89896B",
"mX c #93886E",
"MX c #8A8573",
"NX c #8C8B74",
"BX c #868874",
"VX c #928C74",
"CX c #948978",
"ZX c #8C9277",
"AX c #949275",
"SX c #95927C",
"DX c #99947A",
"FX c #96936B",
"GX c #A5947B",
"HX c #A98978",
"JX c #81A545",
"KX c #C88A77",
"LX c #9A9782",
"PX c #A29986",
"IX c #A38D80",
"UX c #ABA788",
/* pixels */
"v v B.j j ..+.k ] F.b v B.[ { Q +.#.w. .J 2.; # G P { %.~.c +.{ gX4.i +.` J F ~ # @ : p.BXv.v.d.v.b.v.c.j.p.5Xg.^ e.f.y.8.d ^ d ",
"v k @XK.].%X^.O.eX:X&X0X&X_.G G 0 +XwXOX2.F * Q { 3.W o.0X0X*X*.~ ~ 9 l &.3 3 6 i E F _ b.zXvXMXzXzXc.c.p.p.x.e.d.6Xb.f.q.9.8.& ",
"&.OX*.*._.T.`.x Q.D.T.`.Q.O.o.0 G { O.W.$.* %.%.2.2.# 0 `.|._.K.` 0 4 9 ~.@.%.} r.` J -.V ! ,.l.c.6Xg.8.^ v.x.c.VXVXvXlXv.v.d.> ",
"5 0 2.3.e J.W.Q.:X[.|.T.X.+X*XOX<.<.0 !. .4 0 *.3 3 2 k j n z z Q._.| l #.0X~.k l ` <.1.V -.! 7 ) e.d = d MXBXx.vXvXlXc.lXv.d.> ",
"Q.` { 5.~ { OX&X<X;X@XJ.OX#X*XOXJ cXU G s. .Q *.q e C.&X&XK.S.].&X[.XX0X<XXX0XT.T.*Xo.2 V l.R ; i 9  .t.( h.x.vXBXBXlXv.v.b.y.< ",
"..o.# + % ~ l ' L.L.' q e [ e G N :.aXH F F <.J 0 [ Q.C.J.J...S.X.V.R.A.m.Z.Z.x v S.O.G H H @ E  .0 8 $.E y k.BXlXb.c.vX6Xg.8.> ",
"%.} o.=X2 2 g 2 6 $.q *.G 6.<.S <.N aXhXC >.:.pX1.3 { =X*.` W.eX.X1XD.Z.D.:Xz XXKX[ e { aX4.; a %.*.2.~ ~ ) p.vXlXf.0.8.8.8.d = ",
"s =X*X3X%X@.}.t.) : G 3.<.1.gX1.H ;.D D N $ I hXjXN % *.$.0 ` Q.;X@X%X+.*X+X:X_.#X#XU.G 5.4.+ i !.` 2.~ ) / = y.x.^ = = = > > d ",
"b |.Q.Z.T.W...l { + F F ;.-.4.jXV ~ S O + O V ! C $ R y u } 6 { L o.+.u } o.o.=.=.o.%.a V $ N J  . .* # * . 4 f d . t t y > t f ",
"&X|.T.[.' o.=X*.3 G 3 9 # % N Z M $ # E %.E # F F + : * +.8XW F { 3 t.$.2.$.{ { q &.rX*Xt.; H cXF ( E  .E c w.c c 8.s ( / ) h.c ",
"_.@XXX_.U.{ =.6.6.6.#X+X*XE O C >.$ 0 /.*XO.` ` p } t.!.Z._.OX{ cXU ;.~ 5.2.F p h S.Q._.].L.F 4.,.% { %X^.%X`.`.%XOX` 3 ~ V u.7.",
"` [ B.] -XJ q L cX6.e x x u + C >.;.` h o.e e o.h 5 ' J.C.[ ` % H pXhXH M N % 9 +.Z.n x m.N.` % -.;.S L ` 0 x v ' o.G J gX! u c ",
"2.W l Q.e m 5 q $.G 5 z 5 %.F $ C >.R # F J { { !.&.*X' ` 3.8 ~ >.N F H >.>.% Q t.0X,X X).D.j 2 G ;.U gX,.6 %X|.` 3 S 4.! R . a ",
"{ 9 o.@X] D.&Xt.9 ; o.&.*.3.<.:.>.I : $ - V 8 8 *.s.o.OX3.G Q $.~ % # + H D N { 9 t.J.@X_.@X].!.0   N 4.! + | ..{ G H H H X *  .",
"X.w O.k _.:Xj c W { ~ J H D Y Y sX:.+ : : R 2 p { { ~ ~ Q Q i 4 4 u u #   @ ;.gXF % 2.~ 5 c } } l h 9 + V F 0 l 6 F jXjXC N ; u ",
"1X:X&XQ.3XwXj *XW F 1.aXaXpXsXU N S ; y / h.*X+XG J Q + 6 9 ~.*X%X8X!.&.*.G S pXpX:.T N 3 $.; Q ^.*X%Xi ) ) ` OXE 7 $ M :.;.+ 7 ",
".X.X[.:X'.[.' { J pXcX:.>.-.C F O ; 4 u * ` _._.` 9 4 u E 2 X.`.J.&.L.OX*.W D pXkXsXT Y K U 1.U *.W.T.w.y * p W.' } 6 ; a.$ : _ ",
"I.V.B.D.N.] =.6.4.U H N $ O : @ = 4 a u { G U.` 8 8 +.| $.` b Q.*.3.G 3 G S D :.dXiXI :.pXaXdXU 3 0 +.a i Q 6 ` o.l | W + O ! - ",
"2XoXK.@XY.6.<.1.:.N $ X = y * 6 | | { l.FX4.~ gX;.S <.<.~ ~ r.t.J pX1.4.5.S o Z B C o o M :.pXU % S { 2.;.4.:.N *.&.!. .9 i F $ ",
"H.V.z e =.cX5.M >.! ; * 4 t } ' b O.L G ;.H -.H I 4.aXaXpX% 2 i % S S H H $ D :.M ! : X ! ;.:.:.I H H hX:.:.hX,.# ` g w. .9 ~ N ",
"P.:X3X&.*.G S B pX;.# l | | 3X4XeX>X4XY.G + + + % 5.aXpX:.+ 9 %X`.' 2 * @ % hXaX% @ # 7 ) V $ Z iXaXI N + % ! _ : 7 s %X*.G 4.B ",
"Q.X.C...0 2 3 2.O # l Z.@.C.H.).`.).N.N.0 8 E ` 6 + D I o + 5 #.`.Z.| } E 9 N D # 8 i 7 O O N :.kX:.$ @ ; # =   R 7 }  .0 G + O ",
"l ^.+X{.[.3X .6 a ..[.XX).oX1X[.b S.#XP.OX=XHXHX=X8 % V + Q ] (.%X` 0 o.3X+XG { # i * % ;.-.B C -.V # a ( E &.l * y } p 9 8 4 4 ",
"e.t.r.O.(.].t.. #.|.[..X>X.XXX[.j *X+X' ` *.*.*.*.` F ) a.o.[.[.!.Q # o.{.(.+Xp h +.Q ~ H hX4.Z Z H *  .e. .X._.u 4 E i E E } c ",
"PXbX7X( E i u | &X:XP.] C.D..XG.'.].S.l W cX2.l.{ 6 4 i t.2 z (.&.0 9 ` 3X[.b @.Q.k i ) N I I Z T 4.: / y # 5 k s u i Q F ~ 7 y ",
"SXSXNXBXh./ $.s.!.O.L.=XL.+X:X,XeXwXW.=XOXS N V F 9 %X^.q o.*X3X*X*.$.G L.@X| wX:X+X3.~ -.M M dXdXB $ = y e.3.*.*.$.{ % ;.! : , ",
"z.6XNXSXSXg.SXvXa./ Q ` -X{ o.J.k h l W.L.` 8 ; 6  .@.#.q !.@.k o.*.5.S G G $. .*.P % 1.JXfXdXxX:.$ # ( f W ;.U J J aXY :.;.: & ",
"SXNXvXVXMXSXSXBXBXLXe.6 *.9 OX3X&.J.@.%Xe OX$.$.8 u /.D.F.O.0 +.o.L l.H D ;.% S K K dXY T dXsXsX:.V = f u W <.hXU pXdXdX:.Z X - ",
"nXnXFXFXFXFXAXLXZXv.t s l k K.#X#XP.P.#X[ OX} 4 u l 5 _.;X_.!.$XL.L.R % 4.gXI :.dXT sXaXI B Y ;.-.F : y 6 6 H ;.V N V -.>.M o M ",
"a.DXDXGXFXFXNXLXMXy c ~.b Z.N.] e U.=.L 0 Q ` %.W...[ [ {.C.' OX' l 4 + N N B sXsXiXU C V V C V $ % ; 7 8 # % + O + O $ M V jXM ",
"u.6XVXnXFXDXPXLXz.s 0X:X:X@XJ.p # <.~ 5.l.0 @XwX%XQ.3X] j <XqXqX<Xk u %.3 M T sXI H V $ X , V $ : y t.+./.^.} 6 8 Q ) R @ : ! ! ",
"7.h.k.k.mXDXMX5X( 5 j D.N.N.' ` ` # % 2.% 9 D.m.w 5 F.P.z Z.E.m.V.z j | G N :.T $ X X @ >   X X O R G ` ' l Q Q G Q / : . # @ O ",
"0Xc y y 7XSXLXe.s ~.k X.E.1X1X1XeXK.` 3 : 6 r G.).>X;X>X,X(.XXXX2XoXoX:X=.S >.Z O F ~ ~ $.W H B N M 1.1.S N ;.aX-.: * 4  . .; % ",
"R.x s E u  .h.( l `.`.v m.oXH.I.V.D.L.W R # o.@X,X(..XG.D.B.V.G.G.H..XP.{ 5.H % Q i W G ` G N pX:.:.sXdXpX4.-.-.C + u a W W -X~ ",
"2X'.@X+X+Xk 5 g `.2X(.N..XyX.XG.(.e 0 *.G =.6.{ ` +X).>XeXKX3X3X#XO.3XU.J gXF * t 4 4 9 ` <.dXkXiXB Y sX:.-.V X + 7 a $.F 5.2.V ",
"1X X<X3X,XwXX.Z.XX2X,X>X>X X4X_.<X=X=XL l L.-Xl.8 OX,X2X<X_.<X@X@XO.*.$.F + 8 s #.#.b +.*.S :.iXI o Z I B X R y * ; 8 ~ H N X X ",
"G.K._.C.C.(.j X.).R.S...X.X.' q 5 J.o.e n @.W ~ 2 [ {.P.J.o.J._.{.' $.W # 2 l ..T.S.k e [ q N B o -.C o O ; = . t ; % :.gX-.: - ",
">X{.S.J.Z.[.&X,XeXqX*X^.*X@.%XJ.S.D.[.Q.x ].*.2 !.3X,X:Xk k ^.<X1XeXo.9 ..*X*XO.|.,X,X<X:X/.8 : + $ ,.! & ( ( a $.) U T I B X & ",
".X.XD.C.:X X:X:X).`.*XW.5 %X|.|.:X'.:X&XS.%XJ.] `.'.).A.T.j D.:XP.{.OX' Q.]._.] P.{._.(.).:Xw.4 i ; ,.V % + R a.~ S fXfXY I - - ",
".XE.V.1Xm.V.z G.).B.z k &XZ.T.XXx qX).V.z Q.(.V.A.m.qXXX X'.).).G.N.Q.X.P.G.P.;X1XP.V.D.R.v b }.} R # ; G G R l.F 1.xXsXhX-.$ - ",
"2X2X2X1XoX>X).).qX>X1X1X2X2XyX>XD.eX.XtX1XqXuX1X[._.tXyXtXtX2XtXqXeX<X:X2X2XuXuXtX1X1X2X`.|.0X+X~ F 4 r.`.].p * % ~ 4.pX-.M $ , ",
"A.).E.H.H.).H.n.n.N.N.n.H.E.M.n.r P..XG..XG.H.V.j ] H.n.H.H.H.H.V.m.w w H.I..XH.m..XI.V.x Z.B.e ~ l.4 h A.A.j u * + N B M o O O ",
"eX&X@.l %XQ.:X4X>X;X@XX.wX>XoXoX>X2X;X,X*X*XA.G.D.:Xx e .X>Xz ] D.G.E.XX1X).j 5 XXqX2X4XtX>X.X{.` Q i u n A.'.Q. .7 N pXC C H H ",
"k @.u !.!./.[.(.).D.C.z D.D..X.X;X X).(.J.%X:X.X,X_.OXQ. XA.z ,X:X:X0XXXoX:Xr.c `. X.X{.P.>X.XP.[ 0 4 w.|.`.|.].+.$.F V M M pXI ",
"s ~.%X^.*XW.X.`.v (.n.V.,X'.B.v x K.B.P.:X[.B._.0Xr.wX/.,XR.A.E.`.[.X.|.Q.j ..J.,XK.[ 0 i | ] (.&X3XX.v T.&Xh l !.a * # 1 : - C ",
"~.r...W.].&XZ.|.'.'..X.X>X>X,XD.`.:X:X X). X)._.S.b `.T.].[..X X).[.x Q._.C.O./.].W.$.Q ;  ..._._.D.[.[.v T.5 %.%.+.a 9 y & V V ",
"(.,Xx ].X.C.G..XH..X>X2XG.>X>X.XoX.X2X.X[.x .X.XE.qX).z n X.w B.>XV.G.;XF.z O.&.h | e.NXy h.~.T.v v _.X.w h ..@.r.*.&.E R $ >.-.",
" X[.&XwX' ..&X>X2XoX2X).).>X>X;X;X.X.X;X@XX.,X.X2X X X:X:X<XJ.@X:X1X2X>X4X@X+X+X} h.x.BXe.u.~.0X*X&X*XX...0X*Xw.s.$.` 3.N N I Z ",
"j j k }  .$X| ..T.R.A.>X@Xz w j ] K.(.[._.W.C.j z n.D.(.D.] j S.C.j z Z.X.X.....t.h.d.p.LX6X( f b b ..l u +.r.i R 2.# S 1.sXiXM ",
"].@.w.u.LXSXh.} wXqX,XeX3X&XD.].W.KXwXeX<XeXeX,X:XQ.eXeX,X[.<X3X].k x wX|.Q.wXw.8XDXLXvXNXCX7Xu.f f @.OX8X$X!.s.7 % ~ ;.T sX:.Z ",
"'._.+.mXVXDXk.p r.S.D.D.(.(.`._.o.' _.`.,X X).>X>Xz B.(.(.).>X[.Q.|.Z.`.`.].+.t.GXFXAXnXmXDX7X7Xd.y W.W.mX7Xt w.t.Q 2.H o I C o ",
"n X.%.GXAXVXbXE 5 O.[.).n. XB.Z.S.k x `.z R.).V.m.r R.eXG.A.r n n.x z x Z.h OXGXFXDXnXNXDXnXbX5X8.u ].W.c f s c w.` #   H >.V - ",
"X.@.$XDXLXvXVX$Xi r._.eX,XqX<X:XqX'.'.,XD.S.,X,X2XqXqX1XqXKXD.:X>X>XXX:X<X!.=XGXNXnXAXDXZXAXnXg.t ~.eX;X`.~.w.w.&X`.X.0 F -.@   ",
"..c 7XNXZXBXVXCXt.a l k Z.b @.#.Z.R.R.R.w j D.D.A.).R.V.A.n.x _.G.G.D.Q.&.p 7XAXNXSXZXNXnXNXvX^ u r.C.N.T.#.c s @.Q.S.%.% X = = ",
"w.f h.g.j.g.x.e.h.h.a y 4 f 8XCX%.r.Q.x X.S.w Q.D.z w ].eXA.X.W.C.S.O.0 i 7Xh.a.g.p.x.vXNXx.d.k.e.s.t.` E i i $.%.0 h.k._ V , > ",
"u.8XPXLXZX6XCXg.MXPXSXMXh.e.IXCX7Xs W.&X*X*X<X*X%XO.W.3X|.,X].^.^.OX$X( a.UXAXVXh.5XPXSXLXCX6XPXLXDXmXDXg.R j.R ) bXLXa.,.R 0.d ",
"p.PXMXvXAXMXvXk.MXSXNXc.d.> u.u 4 m v A.j | k g k h 5 X.Z.X.r.GX7X( = y AXSXNXk.d.k.VXVXNXbXmX6XMX5Xx.k.k., , - p.LXlXk./ e.z.q.",
"vXBXSXvXMXLXvXx.vXvXNXNX0.y f c s c |.|.%X..r.^.^.^.@.wXwX`.$XGXmX/ y 0.vXx.k.p.c.k.NXNXDXDXbX5XSX6Xx.6Xg.^ & , 0.c.c.c.5XMXz.y.",
"bXVXbXk.mXmXnXAXc.BXZXlX/ y t.w./ $.w.~.}.w./.`.].`.|.`.Z.w.( / ) y 7 / k.) / / c.AXNXc.MXZXZXj.5XMXCXbXy., & p.c.vXvXlXMXvXz.e.",
"c.5X7X7XDXDXAXNXc.vXNX5Xe.= +.a g.5Xu.| l | w.w.@.~.w.w.%Xw.e.^ , R 7 / / y / 0.vXNXAXNX5XlXBXf.6X5Xx.c.g.< d 6XbXnXbXvXv.v.6Xd.",
"5X5Xx.k.VXNXDXNXVXc.c.g.( t c }.PXLX7X9XCX .} HXmXGXGXIXCXg.PXZXa.) R R k.p.c.c.p.c.5XMXMX6Xv.j.zXBXvXj.f.^ d k.lXvX5X5Xx.c.x.e.",
"g.v.x.f.BX5XbX6XMXv.6Xd.t = u 7XCXMXMX6X5X/ y h.x.5XMX6XvXvXb.f.i.) : e.SXSXg.k.y.p.z.f.v.CXy.z.j.j.v.b.f.d > h.j.c.7Xh.g.f.0.9.",
"v.9.j.i.i.c.6X7Xv.z.z.y.d & 8.7Xh.g.g.g._ R R p.x.f.f.j.f.f.9.8.d.^ , 0.y.f.f.z.z.^ 0.f.d.d.e.e.h.d.y.q.9.^ . t d 0.y.y.d.y.8.y.",
"z.y.j.i.^ ^ e.9.9.y.9.8.< d 9.8.8.e.0._ ^ R , ^ y.p.9.i.p.0.8.8.^ < > < q.9.9.^ ^ ^ < ^ 9.8.d ( ( 8.q.8.q.> t t d q.8.8.8.^ q.8."
};
