/* XPM */
static char *d09c4b56e8dc43f6e0382bdec2bf2b9141ydKa38w065W8qW[] = {
/* columns rows colors chars-per-pixel */
"64 64 205 2 ",
"   c #030304",
".  c #060807",
"X  c #02030C",
"o  c #08070F",
"O  c #030909",
"+  c #120F0C",
"@  c #0B1505",
"#  c #0F110C",
"$  c #111405",
"%  c #1A1907",
"&  c #11120C",
"*  c #16190E",
"=  c #181F0D",
"-  c #010114",
";  c #080111",
":  c #0F0C15",
">  c #01011C",
",  c #0C0A1B",
"<  c #110F12",
"1  c #110F1B",
"2  c #0C1312",
"3  c #0E141A",
"4  c #131614",
"5  c #1A1615",
"6  c #141914",
"7  c #1A1B15",
"8  c #14151B",
"9  c #19171C",
"0  c #161A1C",
"q  c #1B1C1C",
"w  c #211E14",
"e  c #221D1B",
"r  c #1D220B",
"t  c #1C2211",
"y  c #17201D",
"u  c #1E221B",
"i  c #212315",
"p  c #22221D",
"a  c #010123",
"s  c #050924",
"d  c #0A0925",
"f  c #01012B",
"g  c #00082C",
"h  c #0B0B2A",
"j  c #110C2A",
"k  c #141622",
"l  c #1B1622",
"z  c #141924",
"x  c #1B1C24",
"c  c #15162C",
"v  c #15192B",
"b  c #1B1A2B",
"n  c #010134",
"m  c #0A0D30",
"M  c #01013B",
"N  c #08033D",
"B  c #0A0B3D",
"V  c #130E3C",
"C  c #0F1431",
"Z  c #0F113E",
"A  c #131432",
"S  c #121933",
"D  c #1B1B37",
"F  c #14153E",
"G  c #1C143E",
"H  c #151A3D",
"J  c #18183A",
"K  c #211D22",
"L  c #241E2A",
"P  c #1C222E",
"I  c #222124",
"U  c #232824",
"Y  c #282826",
"T  c #242328",
"R  c #25203E",
"E  c #2E2D3F",
"W  c #3B3E37",
"Q  c #33363F",
"!  c #3E3F3A",
"~  c #333534",
"^  c #010144",
"/  c #0C0B43",
"(  c #01014C",
")  c #0A064B",
"_  c #07084B",
"`  c #0C0B4E",
"'  c #0A0444",
"]  c #120E40",
"[  c #150F4F",
"{  c #0F1640",
"}  c #0F1048",
"|  c #141644",
" . c #141842",
".. c #1A1B43",
"X. c #14154B",
"o. c #181449",
"O. c #13184A",
"+. c #010154",
"@. c #090552",
"#. c #010854",
"$. c #090956",
"%. c #01015C",
"&. c #0A055A",
"*. c #03085C",
"=. c #0B095A",
"-. c #120E5D",
";. c #0F1352",
":. c #0E125C",
">. c #141754",
",. c #11135E",
"<. c #241F48",
"1. c #1F2152",
"2. c #252146",
"3. c #2B3046",
"4. c #3D3C41",
"5. c #33334D",
"6. c #010163",
"7. c #0A0464",
"8. c #0D0B66",
"9. c #01016C",
"0. c #0A056A",
"q. c #04086B",
"w. c #0C0A6D",
"e. c #130E63",
"r. c #130F6C",
"t. c #0D1164",
"y. c #0E1169",
"u. c #111264",
"i. c #11116C",
"p. c #1F1C6D",
"a. c #010174",
"s. c #0B0575",
"d. c #0A0B73",
"f. c #01017C",
"g. c #0A057B",
"h. c #060A7B",
"j. c #0C097C",
"k. c #110F70",
"l. c #0E1074",
"z. c #111173",
"x. c #11137A",
"c. c #010183",
"v. c #0A0584",
"b. c #060883",
"n. c #0C0883",
"m. c #020189",
"M. c #01008C",
"N. c #02008D",
"B. c #00008E",
"V. c #00008F",
"C. c #02008F",
"Z. c #01038C",
"A. c #05008C",
"S. c #01018B",
"D. c #0E0A89",
"F. c #100C84",
"G. c #100B89",
"H. c #000090",
"J. c #030091",
"K. c #000093",
"L. c #030093",
"P. c #020393",
"I. c #010095",
"U. c #000097",
"Y. c #020097",
"T. c #030296",
"R. c #060296",
"E. c #010193",
"W. c #090195",
"Q. c #010098",
"!. c #02009A",
"~. c #05019A",
"^. c #01009E",
"/. c #01019B",
"(. c #0100A3",
"). c #0001A0",
"_. c #0000A5",
"`. c #0100A7",
"'. c #0002A6",
"]. c #0101A3",
"[. c #0804A7",
"{. c #0000AB",
"}. c #0101A9",
"|. c #0502AA",
" X c #0504A8",
".X c #0000AD",
"XX c #0201AC",
"oX c #0100AB",
"OX c #0A08A9",
"+X c #0201B1",
"@X c #0201B3",
"#X c #0101BA",
"$X c #0806BF",
"%X c #1616B2",
"&X c #1918BE",
"*X c #0201C3",
"=X c #0B09C6",
"-X c #0101CA",
";X c #0B08C9",
":X c #0600D0",
">X c #0E0AD1",
",X c #0300DA",
"<X c #1615DB",
"1X c #0500E2",
"2X c #1C18F1",
/* pixels */
"2.v.a.9.a.f.9.f.f.9.9.f.a.9.a.a.a.a.a.a.a.a.a.9.a.a.9.d.R Q w.a.a.f.f.f.a.a.a.f.a.a.9.<.~ 8.f.a.9.a.f.f.a.a.9.9.a...>.f.a.9.a.u.",
"..J.U.J.J.J.c.J.U.c.B.U.B.c.B.J./.U.J.J.B.B.c.f.c.g.9.%., x h.T.c.Z.B.J.J.B.c.a.c.f.6.h q 0.J.B.U.J.B.J.U.B.f.f.6.m #./.~.J.c.@.",
"H B.U.J.Z.Z.c.T.Z.c.B.U.Z.f.Z.B.f.f.f.c.c.c.f.a.f.9.%.(   k f.]./.U.B.B.U.J.Z.f.c.f.%.> & d. X]..X].).|.@X@X).J.9.f %..X|.U.f.n ",
"O.J.B.f.f.c.f.J.f.a.c.B.f.a.f.c.9.9.a.a.f.a.a.9.%.+.+.+.o x h.B./.J.c.f.f.f.f.a.a.a.+.> 6 d..X@X].|.|.|..X.X/.B.f.n +.U.J.c.9.f ",
">.B.f.a.f.c.a.f.a.9.f.Z.f.9.a.a.a.a.a.a.a.9.6.6.( ( +.+.- z h.B.f.c.c.c.a.9.9.6.6.%.( > 6 d.].|.|.#X*X|././.c.a.9.a M f.a.a.6.n ",
"o.c.f.f.A.J.a.9.f.a.c.J.Z.f.f.a.9.6.6.6.9.9.6.6.%.+.+.+.X c b./.f.c.c.f.9.6.9.a.+.+.( - 4 d.).).|.=X;X|./.~.Z.a.9.g ^ f.a.6.+.f ",
"X.J.J.U.].|.J.B.B.f.c././.J.Z.f.6.6.%.6.9.9.a.a.6.%.+.( X z b./.B.c.c.a.9.a.a.f.%.%.( ; 4 d.).]./.+X@X)./.).B.a.a.n ( f.6.+.( > ",
" .Z.B.B.U.).U.).c.9.a.B.J.c.f.6.a.9.6.6.6.6.9.9.%.+.( ^   9 h.T.Z.c.a.a.f.f.a.9.6.%.( ; 4 d.].@X/.|.]././.).c.6.6.a M 9.( ^ ( f ",
" .J.c.a.f.^./.f.f.f.f.a.9.9.a.c.+.6.a.9.6.%.6.9.%.+.+.^ X 0 g.J.f.a.a.f.c.c.a.6.6.%.( > 4 d.)..X|.].U.c.B./.Z.9.7.a X > f a -   ",
" .T.f.a.B.J.a.9.c.c.c.9.%.+.+.%.+.6.9.6.%.%.%.9.%.( +.( X 0 g.Z.a.a.9.a.c.c.a.6.%.+.^ - 4 d.].@X]./.Z.f.f.Z.f.6.+.> M f.f.f.a.^ ",
" .A.a.f.B.c.9.9.B.B.c.a.6.+.( +.6.9.9.6.%.%.9.a.%.^ ( ^ X 9 s.a.a.a.9.a.a.a.9.%.%.%.( > 8 d.)..X|.).Z.f.f.c.a.6.%.a +.U.P.U.J.+.",
"| f.f.c.f.f.c.f.6.9.6.6.+.( ^ ^ %.%.%.+.( +.6.9.a.( ( ( - b v.a.9.6.6.6.6.6.+.( %.+.( > 8 d./.|.@X].J.c.f.f.a.6.%.n %./.U.c.9.n ",
"S f.f.f.6.6.f.a.%.%.6.6.%.%.%.%.%.+.+.( ^ ( +.6.9.( ( ^ X 0 g.f.a.9.6.6.6.%.%.+.( ( ^ > 4 d./.].|./.Z.f.f.a.6.%.^ a ( B.Z.f.6.f ",
"H J.Z.c.9.6.6.6.%.%.6.6.%.%.%.+.+.( ( ^ ^ ^ ( +.+.+.+.^   6 0.f.9.6.%.+.+.+.+.( %.%.( a 8 d./.)..X/.B.c.c.a.6.%.( - ^ c.a.9.9.n ",
"o.f.9.a.6.%.+.+.%.+.+.+.( ( ( ^ +.+.+.( ( ( ( ( M ^ ( ^ > 9 &.6.%.%.+.( ( ( ( ( ( ( ^ > 8 d./.]..X/.J.J.c.a.6.%.+.a M 9.%.+.( a ",
"8 a X a - - a > a > > > > > - - - - - - - X X   X - X - X % d > a > - X X X X - O - -   & w.).@X).J.c.c.f.6.+.( +.a X > > - - - ",
"f.c.f.f.a.a.a.a.9.f.a.a.a.a.&.4 l 5 4 4 4 8 8 k z 8 4 6 7 9 7 7 v 5 5 9 6 4 9 6 k 0 6 4 x w./.]./.J.B.Z.f.a.6.+.+.- f a.B././.f.",
"|.]./.J./.].).A.Z./.J.B.Z.B.a.d i A / =.8.7.0.w.s.s.7.&.) / B B z w K V $.0.g.g.&.&.=.) A 7.^.|..XU.B.U.Z.9.%.%.+.> M J.@X*X-X.X",
"/./.J.c.Z./.J.f.a.Z.c.a.a.c.6.- t $.9.c.B.f.Z.B././.J.f.6.%.+.+.B x L @.a.c.c.f.f.a.a.%.s &.U./.@X).U.J.c.a.6.+.+.a ( .X-X,X1X-X",
"/./././.U.U.B.f.9.c.f.9.9.f.6.X k g.c.Z./.J.)./.f.c.f.9.%.( +.%.%.c b *.c.c.a.%.a.%.9.%.> %.)./.|./.B.c.f.a.6.+.+.a +.@X-X*X-X@X",
"J.Z.J.^./.B.f.a.f.c.f.9.9.f.6.X B J.J.Z./.J./.c.6.9.9.6.+.( +.6.6., 9 *.J.Z.a.%.%.+.6.+.- %.].).).c.a.f.a.6.+.+.+.a %.@X#X@X.X/.",
"/.c.f./.|.U.f.a.a.f.9.6.6.6.+.X ( T./.J./.U.B.9.6.9.9.6.+.+.%.%.6.- 8 =.c.c.a.9.+.+.6.+.- ( J././.f.6.9.9.6.+.+.+.a +.@X#X|.|./.",
"/.f.a.c.U.J.f.a.f.a.6.6.6.%.( - +.Z.].).].|.].Z.9.9.6.%.%.+.+.+.%.- 8 ` 6.6.6.%.^ +.+.( - ( B./.U.c.9.%.6.6.%.( ( > +.#X#X).[.].",
"/.Z.f.f.f.c.c.c.f.9.%.6.6.+.^ - %.f./.J.c.Z.c.a.9.6.%.+.%.%.%.+.( X w v g > - X > a > >   ( f.Z.].c.6.6.9.%.+.( +.> +.@X@X/.).).",
"/.U.c.c.B.c.f.B.f.a.9.6.+.( ^ > 6.J.B.c.b.a.f.9.%.6.6.9.a.6.%.9.6.- *.h.s.a.6.%.6.6.%.> 4 7.B.Z.B.c.f.9.6.6.%.+.( a +..X#X.X.X].",
").J.f.f.J./.Z.f.f.f.a.a.6.+.^ - %.c.c.f.Z.B.c.9.%.6.c./.U.f.6.%.6.> a.].].|./.J.a.a.6.> 4 w./././.B.f.9.6.%.+.+.( a +..X#X.X@X].",
"/.Z.f.f.J.|./.f.f.f.a.f.6.+.^ X %.a.a.a.U.OXU.a.a.a.B.].J.f.9.%.%.> a.).U.U.Z.c.c.f.6.> 4 d.].|.|./.c.a.6.%.+.+.+.a +.|.#X@X@X|.",
"U.c.c.B.J.).).c.a.a.9.9.%.( ^ - ( 9.9.f.[.&X[.m.Z.c.c.Z.f.9.9.9.6.> a.U.c.f.a.a.c.a.6.> 4 d.].].|.).B.f.9.6.%.+.+.a ( ].#X@X@X|.",
"J.c.B./.U.P./.B.6.6.+.%.( ^ ^ - M 9.f.c.~.%X].J.B.B.c.c.f.6.%.6.+.> f./.B.B.c.c.9.9.%.> 8 d./././.J.c.f.a.6.+.( +.a ( ).#X@X@X].",
"U.c.c.U./.J.c.f.%.+.( ( ^ ^ M - a 6.c.c.Z.P.J.B.U.U.Z.f.f.6.+.6.^ - f.|.)./.c.a.6.6.+.> 8 w.U.B.c.c.f.a.6.%.( ^ +.> ^ ).@X@X@X/.",
"B.c.f.c.U.B.a.6.+.+.+.+.( ^ M - - +.a.f.f.f.Z.A./.J.c.f.9.%.%.6.+.- f.|.]./.c.9.%.%.+.> 4 w.U.J.J.c.f.9.6.%.+.+.+.> ^ ).@X@X|.U.",
"f.Z.f.a.Z.c.6.+.%.%.%.6.+.^ M   2 _ 6.9.f.a.c.c.B.f.c.f.6.+.+.( +.  6.J.J.J.a.6.6.6.+.> 4 w././.|./.c.9.6.%.6.6.( > ^ ).@X.X].P.",
"f.c.c.f.a.a.9.%.+.9.a.9.%.( M o b c ( %.+.6.%.6.6.6.%.%.%.+.+.+.n - a./.B.f.9.6.%.%.+.> 6 d.].).]./.J.c.a.6.6.%.+.a ^ /.#X.X/.c.",
"Z.J.Z.f.9.9.6.+.+.6.6.6.+.( M o 7 u h s - - - > > - > > > - - > a - a.U.c.9.6.%.%.%.( - 4 d.].).).U.Z.c.c.f.9.%.( > ^ /.#X|./.c.",
"Z.B.c.a.9.9.9.%.+.+.+.+.+.+.^ O q I B M f n n M M M M M M n n n , 3 h.J.f.6.+.+.+.+.( - 4 d.).)./.J.c.c.Z.c.9.%.( > ^ /.@X].U.c.",
"a.f.f.9.9.a.a.9.( ( M ^ ( +.^ O e b @.6.9.g.a.a.a.f.a.9.6.6.%.( : 0 j.J.f.9.%.( +.( ^ - 4 d.).).).J.f.f.f.f.9.%.( > ^ J.|./.J.c.",
"9.a.9.6.6.9.9.9.( ( n M ^ +.^ O p z +.a.a.c.f.f.a.f.a.6.6.6.%.( ; 0 s.B.Z.f.9.( +.+.( - 4 d.).).).J.f.9.6.6.6.6.( > M B.).U.B.c.",
"f.f.a.6.6.6.6.+.( ^ M M ^ ( ^ O x v +.a.f.c.c.c.9.a.9.6.6.a.9.%.- z s.J.J.Z.f.%.+.+.( - 4 d.)././.J.f.6.+.( +.%.( > M c./.B.c.c.",
"f.c.f.9.6.6.%.+.( ( ^ ^ ^ ( ^ O q b &.a.a.c.f.c.9.a.9.+.%.a.9.+.; z v.U.B.Z.f.6.%.%.( > 4 d././.U.c.9.%.+.+.+.+.( > M c.U.Z.c.c.",
"a.f.f.9.9.9.6.%.( ( ( ( ^ ( ^ X e b 6.c.c.c.9.6.9.9.%.^ ( %.%.M . z b.U.c.c.c.9.%.%.+.> 6 d././.J.f.6.%.%.%.+.( ( > M c.J.c.c.c.",
"n M M n a f n f > a a a a a >   r v $.f.Z.c.6.( +.( ( +.6.6.( ^ O z g.c.a.9.6.6.%.%.( a 6 8.U.Z.a.a.9.6.%.+.( ( ( a h / M M M n ",
"& & 4 4 $ , f a n M M M M M n a V ] / M n n f f a a a a f n M f   k g.B.f.9.6.6.( ( ^ > 2 8.c.f.6.%.%.+.+.( ( ( ^ - & j n M M , ",
"p b ;.t.t.d.f.a.Z.U./.U.B.J.J.B.g.s.0.&.( ^ ( ( N , 4 < $ @ 2 & & y d.c.f.9.%.%.( ( ( > 4 -.0.%.+.+.+.+.+.+.+.+.( a 8 Z +.%.%./ ",
"I | P.|.@X@X@X|.].|..X.X].).]..X|.]./.U.J.Z.c.f.7.1 q V A C Z | b P s.c.a.6.( ( ( ( +.> 4 o.' n a a a a a f f f a - 3 Z ( +.%.` ",
"e G W.].|.|.|.].).).).]././.).|.'./.U.Z.c.f.9.%.+.O 6 ) 9.a.a.9.1 0 0.a.a.6.+.( +.+.+.> * q 4 @ + + + + + & & & 4 + 5 b c m V b ",
"I | [.'.]./.].|.|.).).].|.].].|././.T.J.c.a.6.+.( O 0 _ f.J.c.%.> 8 7.9.9.9.%.%.+.+.^ > 9 I X.t.u.u.u.u.u.,.,.,.r.e.-.r.8.8.u.J ",
"u { .X].|././.'./.Z.c.J./.U.B.Z.f.c.c.c.c.a.%.^ ^ - z @.J.].B.9.> 6 } ^ M n f a a a -   8 q j.#X@X@X@X.X.X|.|.|.@X|./.|.|.).J.*.",
"p F |.].].T./.).|.B.c.U.|.).J.B.J.Z.c.c.c.a.%.( ^ X l @.J.Q.f.9.; = | N M ^ ^ ^ ^ ( M M G u d.@X|.|.].].).).).).U././.).]./.c.^ ",
"t  .@X]./.J./.).Z.J.J./.]./.U.).:X/.a.a.9.%.( +.( . k #.c.9.%.^ ; q 0.U.J././.|./.U.f.6.h q G.|.).|.]./.|.@X).f.U.c.c.U.c.f.f.^ ",
"p O.@X).)././.J././.J.c.Z.B.J.U..XB.a.f.f.6.+.%.(   l =.c.6.+.( X z g.|.'./.c.c.c.c.9.%.a 6 D.|.).).).|..X/.Z.a.f.c.Z.B.f.a.9.M ",
"K X.|.).].]./.Z.|.).B.f.9.f.J.J.c.f.f.c.f.6.%.6.+.  q F ( n f f   8 s././.B.a.9.9.9.%.+.> 6 D..X|.@X@X]././.Z.f.9.c.c.c.a.9.%.n ",
"p  .[././.U.).'..XJ.c.f.9.f.U.U.a.a.f.c.a.%.+.6.( - e q 2 # & @ 4 q / +.( ( ^ ^ a a a f   6 D.@X.X*X*X@X)./.U.c.a.c.f.f.f.a.+.a ",
"p  .[.U.U./.$X<X@XZ.c.B.f.a.c.B.f.f.f.a.%.^ ( %.M - x H Z X.X.O.[ | _ ^ n n n M f n f n o 7 D.|.).|.#X-X#XU.c.Z.c.c.a.f.c.9.+.f ",
"p | @X].].|.>X2X@XJ.Z.U.c.6.6.a.a.f.f.6.( M ^ ( M   c j.J.J.A.U./.J.J.B.Z.c.c.c.g.f.6.&.d q F.).J.U.).|./.Z.f.c.c.c.f.c.a.%.( n ",
"p | @X|.|.].@X#X^.Z.c.Z.c.%.( 6.9.9.9.6.( ^ ^ ( ^ X c g.J.J.f.Z.m.B.J.P.U.B.c.f.9.9.%.+.> 6 n.]./.J.Z.c.f.f.f.c.c.f.f.f.6.+.+.f ",
"i H |.).|.]./.Z.c.f.a.a.f.%.( %.+.6.6.%.+.( ( ^ ^ ; z q.c.B.f.Z.Z.U./.U.U.Z.f.f.%.%.+.^ - 6 D.@X].Z.f.c.f.9.a.c.c.f.a.9.%.%.%.- ",
"p | ).].].).B.f.J.Z.Z.B.c.9.%.%.%.6.6.%.+.%.+.^ ^ X z g.Z.Z.U./.B.c.c.J././.J.c.a.6.%.+.a 0 j..X)./.Z.f.9.9.9.9.a.9.+.+.( ( +.M ",
"i  .).].)./.c.a.a.f.c.U.J.a.%.+.+.6.9.%.( ( +.( ^ X l g.Z.Z.Z.Z.f.f.f.c.Z.Z.f.a.9.%.+.( > 6 j.|.)./.Z.a.6.%.+.+.6.%.( ^ M ^ ( f ",
"p X.[.).J.B.c.f.%.6.a.B.J.f.6.%.+.9.f.9.+.( +.%.( ; z g.Z.Z.c.a.f.f.a.f.c.c.f.9.6.+.( ( - 6 j.|.)./.J.c.a.6.+.+.%.%.( ( ^ ^ ( f ",
"I X./.B.a.a.f.f.f.a.f.c.f.9.%.%.+.9.a.9.+.( +.6.(   9 s.B.Z.f.6.a.a.9.a.a.a.9.6.%.( ( ^ - 4 j.].J.J.Z.c.f.9.6.%.+.+.( +.( ( ( f ",
"i  .T.c.9.9.9.9.f.9.6.6.%.+.( +.+.+.%.%.( ^ ^ +.(   0 s.Z.Z.f.6.6.6.6.6.6.%.%.+.%.+.+.( > 4 j./.c.c.f.f.a.9.%.%.( ( ( +.( ( ( a ",
"i F U.B.f.a.9.6.%.+.+.%.%.+.+.%.%.+.( +.+.( ( ( ( o 9 0.f.f.a.9.%.%.%.%.%.%.+.+.+.%.%.( h 0 w.c.c.f.f.a.9.6.%.+.+.+.+.%.+.+.+.n ",
"Y ..B.f.a.a.a.6.9.6.6.9.9.6.%.6.6.%.+.6.6.%.%.%.+.k T 7.9.6.6.6.6.6.6.6.6.%.%.%.+.6.6.+.D U 8.a.a.a.a.9.9.6.%.%.6.6.%.6.6.%.6./ ",
"! 3.x.t.:.r.z.d.r.i.u.i.i.u.u.w.k.t.t.k.z.t.t.z.u.3.4.i.y.u.w.k.i.i.i.y.t.t.t.t.8.z.d.e.5.W p.l.y.y.y.i.i.i.i.i.i.i.u.y.t.t.i.1."
};
