/* XPM */
static char *a666fa758b6f45d68eb68d64355657daB2382fooHuCjZljs[] = {
/* columns rows colors chars-per-pixel */
"64 64 231 2 ",
"   c #5D3E2B",
".  c #5B3E28",
"X  c #5E3B35",
"o  c #623D27",
"O  c #54421E",
"+  c #5C432B",
"@  c #5D4B2B",
"#  c #5C4326",
"$  c #5D522C",
"%  c #5B592A",
"&  c #595927",
"*  c #5E4432",
"=  c #5B4E32",
"-  c #5C5431",
";  c #5C5C36",
":  c #545731",
">  c #634226",
",  c #65442D",
"<  c #6A462D",
"1  c #634B2D",
"2  c #6B492E",
"3  c #724B2D",
"4  c #70472B",
"5  c #605328",
"6  c #635B2E",
"7  c #634533",
"8  c #694632",
"9  c #654935",
"0  c #6C4B33",
"q  c #6B4D3B",
"w  c #6C443A",
"e  c #724D33",
"r  c #784C33",
"t  c #714D3A",
"y  c #645433",
"u  c #6A5334",
"i  c #625C34",
"p  c #66553D",
"a  c #6D513C",
"s  c #6B5A3C",
"d  c #6B5E32",
"f  c #745236",
"g  c #7B5435",
"h  c #7E5936",
"j  c #75543B",
"k  c #7B563B",
"l  c #76593D",
"z  c #7D593D",
"x  c #72512E",
"c  c #5B642A",
"v  c #56602C",
"b  c #5C6133",
"n  c #666435",
"m  c #664D43",
"M  c #6F5947",
"N  c #675C4F",
"B  c #695847",
"V  c #735642",
"C  c #7D5542",
"Z  c #755943",
"A  c #7D5B42",
"S  c #7A5D4A",
"D  c #715C4B",
"F  c #6B5D55",
"G  c #695F5B",
"H  c #7E634C",
"J  c #7F6041",
"K  c #6C655C",
"L  c #626353",
"P  c #756354",
"I  c #7B6553",
"U  c #75685A",
"Y  c #815737",
"T  c #845A36",
"R  c #81563B",
"E  c #835B3C",
"W  c #895E3D",
"Q  c #8C5C36",
"!  c #86613E",
"~  c #8C623E",
"^  c #835D42",
"/  c #8A5F43",
"(  c #835D4A",
")  c #855947",
"_  c #8C5C50",
"`  c #856144",
"'  c #8B6345",
"]  c #8E6846",
"[  c #84634A",
"{  c #8C654A",
"}  c #8E694B",
"|  c #876A48",
" . c #926544",
".. c #936946",
"X. c #996C46",
"o. c #91664A",
"O. c #946A4B",
"+. c #9A6D4B",
"@. c #996444",
"#. c #97704F",
"$. c #9D714E",
"%. c #8C6B52",
"&. c #896A54",
"*. c #926B51",
"=. c #996E52",
"-. c #946750",
";. c #937053",
":. c #9C7353",
">. c #9E7854",
",. c #967358",
"<. c #9B7559",
"1. c #A06F49",
"2. c #A2734D",
"3. c #AC784F",
"4. c #B17B4F",
"5. c #A37654",
"6. c #AB7653",
"7. c #A57955",
"8. c #AB7B54",
"9. c #A57A59",
"0. c #AB7C5A",
"q. c #A57658",
"w. c #B27E54",
"e. c #B27E59",
"r. c #867465",
"t. c #8C7565",
"y. c #8D796B",
"u. c #83746C",
"i. c #8A7D75",
"p. c #877C76",
"a. c #907967",
"s. c #5E8528",
"d. c #56962D",
"f. c #5C932E",
"g. c #59992F",
"h. c #56982E",
"j. c #5D8B36",
"k. c #578137",
"l. c #569630",
"z. c #5A9732",
"x. c #579832",
"c. c #5B9B34",
"v. c #5D9D3A",
"b. c #5F903C",
"n. c #638C2E",
"m. c #6D893E",
"M. c #638837",
"N. c #728F3F",
"B. c #649F36",
"V. c #639D3B",
"C. c #66943A",
"Z. c #729C36",
"A. c #5DA136",
"S. c #5FA139",
"D. c #5FA938",
"F. c #65A22D",
"G. c #62A335",
"H. c #63A43B",
"J. c #6AA43E",
"K. c #66AA3D",
"L. c #69AC3E",
"P. c #60AA37",
"I. c #71A63E",
"U. c #6BB03E",
"Y. c #678742",
"T. c #6A9344",
"R. c #6C9B42",
"E. c #689743",
"W. c #719E42",
"Q. c #77984C",
"!. c #799D54",
"~. c #708E46",
"^. c #6DA442",
"/. c #68AB41",
"(. c #6AA941",
"). c #69AD40",
"_. c #6AAE41",
"`. c #6AAD42",
"'. c #6DAE42",
"]. c #6EAE45",
"[. c #6CAA42",
"{. c #6BA747",
"}. c #7DA344",
"|. c #71AC45",
" X c #72AE48",
".X c #78A545",
"XX c #6DB142",
"oX c #6DB142",
"OX c #6FB245",
"+X c #6DB145",
"@X c #6EB349",
"#X c #71B546",
"$X c #73B246",
"%X c #73B947",
"&X c #74B847",
"*X c #72B149",
"=X c #74B34B",
"-X c #75B54A",
";X c #76B54C",
":X c #77B64E",
">X c #76B44B",
",X c #7AB54E",
"<X c #75BA49",
"1X c #77BD4B",
"2X c #7AB84E",
"3X c #7AB547",
"4X c #7EAC59",
"5X c #7BB452",
"6X c #7CB852",
"7X c #839654",
"8X c #AD8058",
"9X c #B58154",
"0X c #B3825B",
"qX c #83A956",
"wX c #89A457",
"eX c #83B355",
"rX c #86BA57",
"tX c #8ABA59",
"yX c #8AB857",
"uX c #92BB5B",
"iX c #90BF55",
"pX c #82B04D",
"aX c #8DA261",
"sX c #9BAD63",
"dX c #86BD62",
"fX c #88BE68",
"gX c #94B964",
"hX c #86C35D",
"jX c #8AC15D",
"kX c #90C05D",
"lX c #8EC361",
/* pixels */
"L.L.H.H.).).OXOXOX#XOX#XOXK.OXK./.).K.K.U.OXOX#X#XOX'.OXK.K.U.L.K.L.H.H.).).+X+XOX#XOX#XOXK.OXK./.).K.K.U.OXOX#X#XOX'.OXK.K.OXL.",
"L.K.H.K.).).OXOX#X#XOXOXL.L.OXL././.K.K.L.OX+X#X#X+XOXOXL.L.'.L.K.K.H.K.).).+XOX#X#XOXOXL.L.OXL././.K.K.L.OX+X#X#X+XOXOXL.L.'.L.",
").L.K.`.L.).#XOX).L.#X<X#X+XL.K.c.c.K.).K.K.L.L.<X<X&X#X#XOX).L.).L.K.`.).).#XOXL.L.#X<X#X+XL.K.c.c.K.).K.K.L.K.<X<X&X#X+XOX).L.",
").).`.+XK.K.#X#XK.K.-X-X#X#X).OXx.c./.+XK.K.OX).#X%X%X#X<X+XK.K.).).`.+XK.K.#X#XK.K.-X-X#X#XXXOXx.c./.+XK.K.XX).#X%X%X#X&X+XK.K.",
"H.H.H.H.c.c.).).c.G.+X+X).).K.K.x.x.H.H.x.c.).XX%X<X1X<X<X+XS.c.H.H.H.H.c.c.).).c.G.+X+X).).K.K.x.x.H.H.x.c.).).%X<X1X%X<X+XS.c.",
"H.H.H.H.c.c.).'.c.G.+X*X].).L.L.c.c.H.H.x.c.).+X+X+X<X#X+X).c.x.H.H.H.H.c.c.).'.c.G.].*X].).L.L.c.c.J.H.x.c.).OX+X+X<X#X+X).c.x.",
"x.c.x.c.z.z.c.c.c.c.c.c.x.c.H.K.x.l.c.c.l.x.H.H.c.c.K.K.G.G.c.v.x.c.x.c.x.z.c.c.c.c.c.c.x.c.H.K.x.l.c.c.l.x.H.H.c.c.K.K.G.H.c.v.",
"z.c.z.c.v.c.c.x.V.V.z.c.x.c.K.K.v.x.z.z.z.c.H.H.c.x.K.H.x.x.x.v.z.c.z.c.v.c.c.x.V.V.z.c.x.c.K.K.v.x.c.c.z.c.H.H.c.x./.H.x.c.x.v.",
"V.V.l.x.c.c.v.v.c.v.G.H.K.K.c.c.G.S.c.c.c.c.c.z.z.z.z.c.c.v.c.c.V.V.l.x.c.c.V.v.c.v.G.H.K.K.c.c.G.G.v.c.c.c.c.z.z.x.x.c.c.c.c.c.",
"V.V.x.x.c.c.G.H.v.S.G.H.K.H.c.c.c.c.c.c.c.c.z.l.l.z.x.c.c.c.c.c.V.v.x.x.x.c.G.J.v.S.G.H.K.H.c.c.c.c.c.c.c.c.z.z.l.z.x.c.c.c.c.c.",
"c.x.c.A.K./.c.x.c.c.S.G.H.H.A.A.H.G.c.c.z.z.z.x.c.c.c.c.c.c.c.v.c.c.c.A././.v.x.x.x.A.G.H.H.c.c.H.G.c.c.z.z.z.x.c.c.c.c.z.c.c.V.",
"G.x.c.A.K.).c.x.x.c.G.G.H.H.c.c.G.c.c.f.f.z.c.c.c.c.c.c.c.c.c.c.G.c.c.A.K.).c.c.x.x.G.H.H.H.c.c.G.c.c.f.f.z.c.c.c.c.c.c.z.z.z.c.",
"H.H./.H.H.A.h.x.(./.*X-X;X;X=X=X/./.^.^.J.J.G.c.H.'.=X6X6X;X X].H.H./.H.G.A.h.x.H./.*X;X;X:X=X=X/./.^.J.J.J.G.c.H.).-X6X:X=X X].",
"K.K./.H.H.A.g.x././.=X;X=X;X-X=X[.^.(.K.J.H.H.H.].*X:X6X6X;X$X].K.K./.H.H.A.g.x././.=X;X=X;X=X=X[.^.(.K.J.J.H.H.].*X:X6X6X;X$X].",
"H.B.h.g.H.[. X*X-X*X2X;X'.[./.K.J.J.G.H.K. X;X:X;X;X X].[.(.K.K.J.G.h.g.H.[.$X*X-X$X2X;X'.[./.K.J.J.G.H.K. X;X:X;X=X*X].[./.K.K.",
"G.G.h.c.H.[.;X,X-X$X;X*X/.K.K.K.J.J.G.H.K.+X-X2X6X:X X[.(.K.K.K.G.G.d.c.H.[.=X;X-X$X;X*X/.K.K.K.J.J.G.H.K.].-X:X6X:X X[./.K.K.K.",
"K.J.^.K.G.K.@X5X[.|.rXtX6X5X.X}.n n R.Z.S.A.G.).fXuXjXdXpX=XJ.F.P.J.^.K.J.K.@X4X[.|.rXtX6X5X.X}.n n R.Z.S.A.G.).fXuXhXdX,X@XH.F.",
"P.L.D.K.R.R.;X-X{.^.eXyXeX5X4X!.y % v.H.v.V.^.J.jXiXlXlX3X@XE.V.D.L.P.H.W.R.*X3X{.^.eXyXeX5X4X!.y % v.H.v.V.^.J.jXiXlXlX3X+XC.V.",
"j.f.h.b.: ; !..Xn n sXyXI.J.B.I.@ 5 T.N.c & W. X6XrXdXgXtXqXn ; j.f.h.b.: b !.}.n n sXyXI.J.B.I.$ 5 T.N.c & W. X6XhXdXgXuXwXd i ",
"n.s.f.M.& 6 7X}.i b aXqX^.V.V.V.- $ Y.Y.; % {.|.eXrXhXkXyXwX6 - M.s.z.m.& y 7X}.i b aXqX^.V.V.V.- $ Y.Y.; % {.|.eXrXhXuXyXwX6 - ",
"= @ $ $ t t p p K N B s i c Q.E.= , $ 5 , @ j.n.b c R.Q.6 s t q @ $ $ $ t t p p K N B s i c Q.E.= , $ 5 , @ j.n.b c R.Q.6 s q q ",
"9 7 + + f j 9 q G F m 9 y & m.C.: 9 > o , 1 k.M.: % T.~.y a f 3 1 < # # f f 9 q G F m 9 y & m.C.: 9 > o , 1 k.M.; % T.~.i p f x ",
"E R 2 < 3 g ! / l l | ' :.:.f u ' ( f f u 0 & @   o $ - N F j C ^ ) w 8 r j ( _ l l | ' :.:.f u ' ( f f u 0 & @   o $ - N F V A ",
"~ ' + * C ^ [ / C z o.@.6.q.0 y ~ ` k g u r + X O . * * L L A C ! ' + + C E ! ~ C z o.@.6.q.0 y ~ ` k g u r + X O . * * N L C ) ",
"^ k l g 5.q.R z 7 8 %.] O.O.z z  .' 8 8 7 7 7 7 e j j a 9 7 l A z k k g 5.q.R z 7 8 %.] O.O.z z  .' 8 8 7 7 7 7 e j j j 9 7 l A ",
"R z z E 7.5.W z < 4 ' ..X.o.^ A ] [ < , 8 < , > j f k k 0 e f j z z z E 7.5.W z < 4 ' ..X.o.^ A ] [ < , 8 < , > j f z k 0 e f j ",
"' [ k E X.+.:.:.l k z E ` H r.u.A A f k :.5.7.2.E E 5.9.5.:./ E ' [ k E X.$.:.:.l k z E ` H r.u.A A f k :.5.7.2.E E 5.9.5.:./ z ",
"] ' ^ E ..X.7.9.A k z E ^ H y.p.A ^ j E 7.7.8.8.^ E 0.0.8.9.E z ] ' ^ E ..X.7.9.A k A E ^ H y.p.A ^ j E 7.7.8.8.A E 0.0X8.9.E z ",
"h z ' { O. .W E g T 2.8.8.7.:.;.-.o.z f ' W .. .e 2 O.X.X.+.z k z z ' ' O. .W E g T 2.8.8.7.:.;.-.o.z f ' W .. .e e O.X.X.+.z k ",
"z z { ' O.] E E z E 7.0.0X8.X.o.O.O.E k z z { O.0 e o.O...O.^ k z z [ ` O...E E z E 7.0.0X8.X.o.O.O.E k z z { O.0 e o.X.O.O.A k ",
"k k 0 < k z ' { k l [ ^ O.O.E `  .' k j 8 < j z ^ ` o.] E E z k z k 8 2 k E ' ] k l [ ^ O.O.E `  .' k j 7 < j z [ ' o.o.E E z k ",
"z A < < k g ] { E z R k O...h z { ' j a . > f h ' ] ] { E f ^ A z A < < z h ] ' E z R k O...h z { ' j a . > f h ' o.o.] E g ^ ^ ",
"8.9.A z '  .E A ' [ 9 , A z z Z 8 9 < 7 j f f k A ^ z k k E q.e.6.q.A z {  .E A ' [ 9 , A z z Z 8 9 < 7 j f f k A ^ z k k E q.e.",
"0.<.[ S [ { E A ~ ' 8 , E T E z > > , < r k j k E E E / k E 7.8.e.9.H S [ { E ^ ~ ' 8 , E T E z > > , < r k j k E E E ` g E 8.8.",
"$.<.a.t.H A z z  .o.k z 5.6.6.q.z E :.:.O.' 0 9 7.5.q.:.3 3 ..+.$.<.t.r.H k k z  .o.k z 5.6.6.q.z E :.:.O.' 0 9 7.5.7.:.3 3 ..+.",
":.,.t.r.M l ^ E { ] E E 7.8.8.e.E ~ $.7.+.{ q m 8.0.0.7.3 0 ` { $.,.t.r.D l / W { ] E E 7.8.8.e.E ~ $.7.+.{ q m 8.0.e.9.3 2 ` { ",
" .{ [ I 9 0 ' ' A z k z O.X.2.2.0.7. . .o.&.P P O.+.O.O.f 0 0 2 ' { H I q 0 / ' A z k z O.X.2.2.0.7. . .o.&.P P O.X.O.O.f 0 0 < ",
"' { ^ ^ < e ' O.j f A / ] o.$.$.9.9. . .{ &.I U } ;.o.O.A j < 7 / ] / A < 3 / O.j f A / ] o.$.$.9.9. . .{ &.I U -.=.o.O.A Z 7 < ",
"/ ' $.0.7.>.E r 0 0 / ' ^ E ] ..+.:.5.7.' ^ V Z l A E E f j f k / ' 2.8.8.5./ f 0 0 / ' ^ E ] ..+.:.5.7.' ^ V Z k z E E f j f j ",
"^ ~ 8.9X9X0.k j , < / { z k ] ..$.X.8.9.Y E k z l k z E f k f f A ~ 3.w.9X8Xk f , < / { z k ] ..$.X.8.9.Y E k z l j R E r k f f ",
"7.5.$.$.2.$.E k W ` z k z z A S A ^ ....o.] k g 0 e :.=.e 8 j A 7.q.+.+.2.$.E z W ` z k z z A S A ^ ....o.] k g 0 e :.O.3 2 j k ",
"7.9.:.X.+.X.h A { { k f / E j A k g ..O.] ( ^ z 2 g $.:.3 2 k z 7.0.:.X.$.X.h A { { k f / E j A k g ..O.] ( ^ z e r :.=.e 8 A A ",
"E E O.+...X.o.-.A k 0 e :.>.E z < , k j e e :.7.9.5.~ E ` ` z g E E O.+. .+.] O.A k 0 e :.>.E z < , k j e e :.7.0.5.~ E ` ` z g ",
"/ z } o.{ O.' ' k j e e :.7.E z 8 8 j a 9 e >.8.q.9.E E } ` z E ` z } o.{ O.' ] k j e e :.7.E z 8 8 j a 9 e >.8.7.7.T h | ` h h ",
"k z z E 9.q.E R 8 0 [ ' +.O.z j ! E 8 7 7   9 8 f h g k 8 7 k k k z k E 9.q.E E 8 0 [ ' +.O.z j ! E 8 7 7   9 8 k z j j 8 7 C k ",
"E z k E 5.5.W R , 2 { o.O.{ [ S ] { < > 0 2 < < j r R z e t j f z z k E 9.5.W R , 2 { o.O.{ [ S ] { < > 0 2 < < k f R z e t j j ",
"] / z E ..X.7.:.A f ^ E ` [ t.u.A ( j C :.:.7.7.z / 5.q.9.<.E ^ { / z E O.X.7.:.A f ^ E ` [ t.u.A ( j C :.:.7.7.z ! 2.2.7.:.E E ",
"' ' ^ / O...5.:.z k E z ` [ y.p.J A z R 7.6.8.6.A h 8.e.6.8.E h ' ] E E O...5.5.z k E z ` [ y.p.J A z R 7.6.8.6.^ z 0.e.8.9.W h ",
"z E ' ' O.{ A A ^ k 0.6.4.8.$.;.} ] E h E E O.o.q 8 =...1.X.E k z E ' ' O.{ ^ z ^ k 0.6.4.8.$.;.} ] E h E E O.o.q 8 =...1.X.E k ",
"Z z ' ' O.{ / E k z 5.8.0X0.O.] O.o.z k k z { ' 2 e O.X.X...z j Z A ' { O.' [ E k z 5.8.0X0.O.] O.o.z k k z { ' 2 e O.X.X...z j ",
"A j 2 2 k E ' ' E z ^ / ..o.` ^ ' ] k j , 1 l A ' ' ] ' E z k A Z j < 2 k E { ' E z ^ / ..o.` ^ ' ] k j , 1 l A ' ' ] ' E z k A ",
"E ^ 0 2 k E ' ] z ^ l A %.{ z k ' { j 0 + , j z ' o.] } ^ k E E E ^ 2 2 k z ' { z ^ l A %.{ z k ' { j 0 + , j z ' o.] } ^ k E E ",
"6.5.z k } { E E ' { 8 < z z z z < , , 8 j f k f z E z z j z q.8.3.5.z k } { E E ' { 8 < z z z z < , , 8 j f k f z E z z j z q.8.",
"9X9.[ S [ { z k o.' 2 < E E E R 8 > 2 < j k k k ^ E W ' j z 0.e.9X0.` S [ { E k o.' 2 < E E E R 8 > 2 < j k k k ^ E W ' j z 0.e.",
"+.,.y.r.S z z ` o.O.z E 7.7.8.7.z ^ <.:.O.' 0 8 9.7.6.:.e 0 { @.X.,.t.r.S k z ^ o.O.z E 7.7.8.7.z ^ <.:.O.' 0 8 9.7.6.:.e 0 { @.",
":.&.i.i.M k E z { ' R E 8.8.8.8./ ' q.q.O.} 9 a 7.8.w.8.< 8 [ ..:.&.i.i.Z k E z { ' R E 8.8.8.8./ ' q.q.O.} 9 a 7.8.w.8.< 8 [ ..",
"' ' ^ ( 8 < ] ~ z z Y E O.#.#.$.8.9.' / O.{ P K O.:... .z f 1 8 ' ` [ S 8 8 { ' z z Y E O.#.#.$.8.9.' / O.{ P K O.:. .O.z f 8 < ",
"' ' ' ^ 2 e ' ] l j z E o.O.$.$.8.q.O...o.{ I U -.O.O.O.g f 0 < ' / ] E e e ^ { l j z E o.O.$.$.8.q.O...o.{ I U -.o.o.O.f f 0 > ",
"/ / 5.8.7.>.^ j , 0 [ ' E E ..+.X.+.5.5.W ^ Z M k z E z f j 0 j / / 5.7.7.7.z j , 0 [ ' E E ..+.X.+.5.5.W ^ Z M k z E E f j j j ",
"E  .6.8.0X9.z j 2 e ^ [ E E ] { +.$.0.9.W E j l l f ^ z j k f k E  .7.8X0X0.k j 2 e ^ [ E E ] { +.$.0.9.W E j l j j ^ E k l j j ",
"7.5.7.+.$.O.z z ' ^ ^ z z z A S h E ..+.o.{ z h 0 2 :.:.2 2 k k 5.7.2.+.2.+.h z ' ^ ^ z z z A S h E ..+.o.{ z h 0 e :.:.0 < j f ",
"7.7.$.+.:.=.E h  .' z f E E k V j z ] o.{ [ E T f h :.:.e 0 k E 7.7.+.+.5.=.! h  .' z f E E k V j z ] o.{ [ E T e z :.=.e 2 k z ",
"E E O.O.o.o.{ ] E k 8 e 5.5.[ Z 7 < k j 0 f :.8.q.$.W W [ { k k h ' o.O.O...] { E k 8 e 5.5.[ Z 7 < k j 0 f :.8.5.5.W E ' { k z ",
"^ z ] O.' O.o.-.j A 9 0 5.2.E k 7 , l j 8 e 9.0.0.6.Q W / { z z A E ] ] ....-.o.j A 9 0 5.2.E k 7 , l j 8 e 9.0.0.8.Q W ' ' z E "
};
